elusive/list-alt.svg

<?xml version="1.0" encoding="UTF-8" standalone="no"?>
<!-- Generator: IcoMoon.io -->

<svg
   xmlns:dc="http://purl.org/dc/elements/1.1/"
   xmlns:cc="http://creativecommons.org/ns#"
   xmlns:rdf="http://www.w3.org/1999/02/22-rdf-syntax-ns#"
   xmlns:svg="http://www.w3.org/2000/svg"
   xmlns="http://www.w3.org/2000/svg"
   xmlns:sodipodi="http://sodipodi.sourceforge.net/DTD/sodipodi-0.dtd"
   xmlns:inkscape="http://www.inkscape.org/namespaces/inkscape"
   id="svg2"
   version="1.1"
   data-tags="remove-circle, cancel, close, remove, delete"
   height="1200"
   width="1200"
   data-du=""
   viewBox="0 0 1200 1200"
   inkscape:version="0.48.4 r9939"
   sodipodi:docname="list-alt.svg">

  <path
     id="path13600"
     d="m 600.00001,0 c -65.16749,0 -115.35656,54.371719 -115.35656,119.38477 0,62.61937 -0.43921,117.40711 -0.43921,117.40711 l -115.86938,0 c -2.18063,0 -4.29071,0.2407 -6.37196,0.58592 l -32.22657,0 0,37.9397 0,74.63368 540.52735,0 0,-74.63368 0,-37.9397 -32.22655,0 c -2.08126,-0.34522 -4.19133,-0.58592 -6.37196,-0.58592 l -115.86938,0 c 0,0 1.3186,-49.59563 1.3186,-117.04079 C 717.11439,57.131485 665.16751,0 600.00001,0 z m -424.8047,114.18468 0,1085.81532 849.60939,0 0,-1085.81532 -269.16516,0 0,78.66189 191.38196,0 0,928.34483 -693.96963,0 0,-928.34483 191.30862,0 0,-78.66189 -269.16518,0 z m 424.8047,1.46484 c 21.34923,0 38.59875,17.17993 38.59875,38.45205 0,21.31078 -17.24952,38.52538 -38.59875,38.52538 -21.34922,0 -38.59874,-17.2146 -38.59874,-38.52538 0,-21.27212 17.24952,-38.45205 38.59874,-38.45205 z m -270.26368,310.62 0,38.5254 38.59853,0 0,-38.5254 -38.59853,0 z m 115.86915,0.73243 0,38.52539 424.6582,0 0,-38.52539 -424.6582,0 z m -115.86915,144.58008 0,38.52539 38.59853,0 0,-38.52539 -38.59853,0 z m 115.86915,0.73243 0,38.5985 424.6582,0 0,-38.5985 -424.6582,0 z m -115.86915,144.58007 0,38.5254 38.59853,0 0,-38.5254 -38.59853,0 z m 115.86915,0.80578 0,38.52516 424.6582,0 0,-38.52516 -424.6582,0 z m -115.86915,144.57985 0,38.52562 38.59853,0 0,-38.52562 -38.59853,0 z m 115.86915,0.80578 0,38.52538 424.6582,0 0,-38.52538 -424.6582,0 z m -115.86915,144.50676 0,38.5256 38.59853,0 0,-38.5256 -38.59853,0 z m 115.86915,0.8057 0,38.5255 424.6582,0 0,-38.5255 -424.6582,0 z"
     inkscape:connector-curvature="0" />
</svg>

<?xml version="1.0" encoding="utf-8"?>
<!-- Generator: Adobe Illustrator 16.0.0, SVG Export Plug-In . SVG Version: 6.00 Build 0)  -->
<!DOCTYPE svg PUBLIC "-//W3C//DTD SVG 1.1//EN" "http://www.w3.org/Graphics/SVG/1.1/DTD/svg11.dtd">
<svg version="1.1"
	 id="svg2" xmlns:dc="http://purl.org/dc/elements/1.1/" xmlns:cc="http://creativecommons.org/ns#" xmlns:rdf="http://www.w3.org/1999/02/22-rdf-syntax-ns#" xmlns:svg="http://www.w3.org/2000/svg" xmlns:sodipodi="http://sodipodi.sourceforge.net/DTD/sodipodi-0.dtd" xmlns:inkscape="http://www.inkscape.org/namespaces/inkscape" sodipodi:docname="list-alt.svg" inkscape:version="0.48.4 r9939"
	 xmlns="http://www.w3.org/2000/svg" xmlns:xlink="http://www.w3.org/1999/xlink" x="0px" y="0px" width="1200px" height="1200px"
	 viewBox="0 0 1200 1200" enable-background="new 0 0 1200 1200" xml:space="preserve">
<path id="path13600" inkscape:connector-curvature="0" d="M600,0c-65.168,0-115.356,54.372-115.356,119.385
	c0,62.619-0.439,117.407-0.439,117.407H368.335c-2.181,0-4.291,0.241-6.372,0.586h-32.227v37.939v74.634h540.527v-74.634v-37.939
	h-32.227c-2.081-0.345-4.191-0.586-6.372-0.586H715.796c0,0,1.318-49.596,1.318-117.041C717.114,57.131,665.168,0,600,0z
	 M175.195,114.185V1200h849.609V114.185H755.64v78.662h191.382v928.345h-693.97V192.847H444.36v-78.662H175.195L175.195,114.185z
	 M600,115.649c21.35,0,38.599,17.18,38.599,38.452c0,21.311-17.249,38.525-38.599,38.525s-38.599-17.215-38.599-38.525
	C561.401,132.83,578.65,115.649,600,115.649L600,115.649z M329.736,426.27v38.525h38.599V426.27H329.736z M445.605,427.002v38.525
	h424.658v-38.525H445.605z M329.736,571.582v38.525h38.599v-38.525H329.736z M445.605,572.314v38.599h424.658v-38.599H445.605z
	 M329.736,716.895v38.525h38.599v-38.525H329.736z M445.605,717.7v38.525h424.658V717.7H445.605z M329.736,862.28v38.525h38.599
	V862.28H329.736z M445.605,863.086v38.525h424.658v-38.525H445.605z M329.736,1007.593v38.525h38.599v-38.525H329.736z
	 M445.605,1008.398v38.525h424.658v-38.525H445.605z"/>
</svg>
